X:13
T: Putnokon már kihajtották a nyájat
Q: 1/4=80
K:Bb
M:4/8
K:1/4
G>G A<G | ^F>G A<B | c2 B2 | A2 z2 |
G>G A<G | ^F>G A<B | c2 B2 | A2 z2 |
B>B d<d | e>d c<B | c2 B2 | A2 z2 |
B>B d<d | c>B A<G | d>d d<c | B2 A2 | G2 z2 |

%%https://zti.hungaricana.hu/en/audio/4932/?t=00%3A19%3A14#record-14719

